packages/icons/svg/Product_List_Standard_32px.svg

<svg xmlns="http://www.w3.org/2000/svg" viewBox="0 0 32 32"><path d="M23 7v18H9V7h14m0-2H9a2 2 0 00-2 2v18a2 2 0 002 2h14a2 2 0 002-2V7a2 2 0 00-2-2z"/><path d="M20.5 11.5h-9a.5.5 0 010-1h9a.5.5 0 010 1zM17 16.5h-5.5a.5.5 0 010-1H17a.5.5 0 010 1zM20.5 16.5h-1.29a.5.5 0 010-1h1.29a.5.5 0 010 1zM17 21.5h-5.5a.5.5 0 010-1H17a.5.5 0 010 1zM20.5 21.5h-1.29a.5.5 0 010-1h1.29a.5.5 0 010 1z"/></svg>

<svg xmlns="http://www.w3.org/2000/svg" viewBox="0 0 32 32"><defs></defs><g id="Icon"><g id="mes_listes_courses"><path  d="M23,7V25H9V7H23m0-2H9A2,2,0,0,0,7,7V25a2,2,0,0,0,2,2H23a2,2,0,0,0,2-2V7a2,2,0,0,0-2-2Z"/></g><path  d="M20.5,11.5h-9a.5.5,0,0,1,0-1h9a.5.5,0,0,1,0,1Z"/><path  d="M17,16.5H11.5a.5.5,0,0,1,0-1H17a.5.5,0,0,1,0,1Z"/><path  d="M20.5,16.5H19.21a.5.5,0,0,1,0-1H20.5a.5.5,0,0,1,0,1Z"/><path  d="M17,21.5H11.5a.5.5,0,0,1,0-1H17a.5.5,0,0,1,0,1Z"/><path  d="M20.5,21.5H19.21a.5.5,0,0,1,0-1H20.5a.5.5,0,0,1,0,1Z"/></g></svg>
